fs/color_fill_28_filled.svg

<svg viewBox="0 0 28 28" fill="none" xmlns="http://www.w3.org/2000/svg" height="1em" width="1em">
  <path d="M11.7509 3C12.1651 3 12.5009 3.33579 12.5009 3.75V5.09963C13.038 5.19397 13.5524 5.44858 13.9673 5.86344L17.6592 9.55538C18.7332 10.6294 18.7332 12.3707 17.6591 13.4446L12.9586 18.1445C11.8847 19.2183 10.1436 19.2183 9.06966 18.1444L5.37772 14.4524C4.30373 13.3785 4.30379 11.6372 5.37784 10.5632L10.0783 5.86332C10.3503 5.59139 10.665 5.38833 11.0009 5.25413V3.75C11.0009 3.33579 11.3367 3 11.7509 3ZM11.0009 8.25V7.06206L6.43844 11.624C6.32657 11.7358 6.24034 11.8636 6.17973 12H16.8607C17.0601 11.5426 16.9728 10.9902 16.5986 10.616L12.9066 6.9241C12.7867 6.80417 12.6485 6.7137 12.5009 6.6527V8.25C12.5009 8.66421 12.1651 9 11.7509 9C11.3367 9 11.0009 8.66421 11.0009 8.25ZM15.4822 13.5H6.5466L10.1303 17.0837C10.6185 17.5719 11.4099 17.5719 11.898 17.0838L15.4822 13.5ZM16.5 18C16.5 17.6466 16.5761 17.302 16.6741 17H15.5176L13.6657 18.8516C12.2012 20.316 9.82695 20.3159 8.36255 18.8515L6.51107 17H6.25C4.45507 17 3 18.4551 3 20.25V21.75C3 23.5449 4.45507 25 6.25 25H21.75C23.5449 25 25 23.5449 25 21.75V20.25C25 19.078 24.3797 18.0509 23.4494 17.4792C23.4809 17.6477 23.5 17.8228 23.5 18C23.5 19.933 21.933 21.5 20 21.5C18.067 21.5 16.5 19.933 16.5 18ZM20.5973 14.2964L20.5954 14.2939C20.4535 14.1087 20.2333 14 20 14C19.7667 14 19.5465 14.1087 19.4046 14.2939L19.4027 14.2964L19.3982 14.3023L19.382 14.3237C19.3681 14.3421 19.3482 14.3686 19.323 14.4024C19.2728 14.4699 19.2017 14.5666 19.1167 14.6853C18.9472 14.9222 18.7198 15.2501 18.4911 15.6116C18.2641 15.9706 18.0271 16.3762 17.8443 16.7661C17.6748 17.1278 17.5 17.5809 17.5 18C17.5 19.3807 18.6193 20.5 20 20.5C21.3807 20.5 22.5 19.3807 22.5 18C22.5 17.5809 22.3252 17.1278 22.1557 16.7661C21.9729 16.3762 21.7359 15.9706 21.5089 15.6116C21.2802 15.2501 21.0528 14.9222 20.8833 14.6853C20.7983 14.5666 20.7272 14.4699 20.677 14.4024C20.6518 14.3686 20.6319 14.3421 20.618 14.3237L20.6018 14.3023L20.5973 14.2964ZM20 16.0437C20.0785 16.1607 20.1599 16.2851 20.2411 16.4135C20.4516 16.7462 20.6521 17.0927 20.7975 17.4028C20.9561 17.7411 21 17.9358 21 18C21 18.5523 20.5523 19 20 19C19.4477 19 19 18.5523 19 18C19 17.9358 19.0439 17.7411 19.2025 17.4028C19.3479 17.0927 19.5484 16.7462 19.7589 16.4135C19.8401 16.2851 19.9215 16.1607 20 16.0437Z" fill="#212121"/>
</svg>

<svg viewBox="0 0 28 28" fill="none" xmlns="http://www.w3.org/2000/svg" height="1em" width="1em">
  <path d="M11.75 3a.75.75 0 0 1 .75.75V5.1a2.738 2.738 0 0 1 1.467.763l3.692 3.692a2.75 2.75 0 0 1 0 3.89l-4.7 4.7a2.75 2.75 0 0 1-3.89 0l-3.691-3.693a2.75 2.75 0 0 1 0-3.889l4.7-4.7c.272-.272.587-.475.923-.609V3.75a.75.75 0 0 1 .75-.75ZM11 8.25V7.062l-4.562 4.562c-.111.112-.198.24-.258.376h10.68a1.25 1.25 0 0 0-.261-1.384l-3.692-3.692c-.12-.12-.258-.21-.406-.271V8.25a.75.75 0 0 1-1.5 0Zm4.482 5.25H6.547l3.583 3.584a1.25 1.25 0 0 0 1.768 0l3.584-3.584ZM16.5 18c0-.353.076-.698.174-1h-1.156l-1.852 1.852a3.75 3.75 0 0 1-5.303 0L6.51 17h-.26A3.25 3.25 0 0 0 3 20.25v1.5A3.25 3.25 0 0 0 6.25 25h15.5A3.25 3.25 0 0 0 25 21.75v-1.5c0-1.172-.62-2.2-1.55-2.77.03.168.05.343.05.52a3.5 3.5 0 1 1-7 0Zm4.097-3.704-.002-.002a.75.75 0 0 0-1.19 0l-.002.002-.005.006-.016.022a16.095 16.095 0 0 0-.265.361c-.17.237-.397.565-.626.927-.227.359-.464.764-.647 1.154-.17.362-.344.815-.344 1.234a2.5 2.5 0 0 0 5 0c0-.42-.175-.872-.344-1.234-.183-.39-.42-.795-.647-1.154a19.976 19.976 0 0 0-.891-1.288l-.016-.022-.005-.006ZM20 16.044c.078.117.16.241.241.37.21.332.411.679.556.989.16.338.203.533.203.597a1 1 0 1 1-2 0c0-.064.044-.259.203-.597.145-.31.345-.657.556-.99.081-.128.163-.252.241-.37Z" fill="#212121"/>
</svg>
